resources/img/achievements/nerd.svg

<svg xmlns="http://www.w3.org/2000/svg" width="64" height="64"><g style="opacity:.65;fill:#17152c;fill-opacity:1"><g style="fill:#17152c;fill-opacity:1"><path d="M13 8.57a1.43 1.43 0 1 0 0 2.86 1.43 1.43 0 0 0 0-2.86z" style="fill:#17152c;fill-opacity:1" transform="matrix(1.11646 0 0 1.11646 18.08 18.65)"/><path d="M13.21 3c-3.84-.11-7 2.87-7.19 6.64L4.1 12.2a.5.5 0 0 0 .4.8H6v3c0 1.1.9 2 2 2h1v2c0 .55.45 1 1 1h5c.55 0 1-.45 1-1v-3.68a7.004 7.004 0 0 0 4-6.58c-.14-3.62-3.18-6.63-6.79-6.74ZM16 10c0 .13-.01.26-.02.39l.83.66c.08.06.1.16.05.25l-.8 1.39c-.05.09-.16.12-.24.09l-.99-.4c-.21.16-.43.29-.67.39L14 13.83c-.01.1-.1.17-.2.17h-1.6c-.1 0-.18-.07-.2-.17l-.15-1.06c-.25-.1-.47-.23-.68-.39l-.99.4c-.09.03-.2 0-.25-.09l-.8-1.39a.19.19 0 0 1 .05-.25l.84-.66c-.01-.13-.02-.26-.02-.39s.02-.27.04-.39l-.85-.66c-.08-.06-.1-.16-.05-.26l.8-1.38c.05-.09.15-.12.24-.09l1 .4c.2-.15.43-.29.67-.39L12 6.17c.02-.1.1-.17.2-.17h1.6c.1 0 .18.07.2.17l.15 1.06c.24.1.46.23.67.39l1-.4c.09-.03.2 0 .24.09l.8 1.38a.2.2 0 0 1-.05.26l-.85.66c.03.12.04.25.04.39Z" style="fill:#17152c;fill-opacity:1" transform="matrix(1.11646 0 0 1.11646 18.08 18.65)"/></g></g></svg>

<?xml version="1.0" encoding="UTF-8" standalone="no"?>
<svg
   xmlns:dc="http://purl.org/dc/elements/1.1/"
   xmlns:cc="http://creativecommons.org/ns#"
   xmlns:rdf="http://www.w3.org/1999/02/22-rdf-syntax-ns#"
   xmlns:svg="http://www.w3.org/2000/svg"
   xmlns="http://www.w3.org/2000/svg"
   xmlns:sodipodi="http://sodipodi.sourceforge.net/DTD/sodipodi-0.dtd"
   xmlns:inkscape="http://www.inkscape.org/namespaces/inkscape"
   version="1.1"
   id="svg2"
   width="64"
   height="64"
   viewBox="0 0 64 64"
   sodipodi:docname="nerd.svg"
   inkscape:version="1.0.1 (3bc2e813f5, 2020-09-07)">
  <metadata
     id="metadata8">
    <rdf:RDF>
      <cc:Work
         rdf:about="">
        <dc:format>image/svg+xml</dc:format>
        <dc:type
           rdf:resource="http://purl.org/dc/dcmitype/StillImage" />
        <dc:title />
        <cc:license
           rdf:resource="http://creativecommons.org/licenses/by/4.0/" />
      </cc:Work>
      <cc:License
         rdf:about="http://creativecommons.org/licenses/by/4.0/">
        <cc:permits
           rdf:resource="http://creativecommons.org/ns#Reproduction" />
        <cc:permits
           rdf:resource="http://creativecommons.org/ns#Distribution" />
        <cc:requires
           rdf:resource="http://creativecommons.org/ns#Notice" />
        <cc:requires
           rdf:resource="http://creativecommons.org/ns#Attribution" />
        <cc:permits
           rdf:resource="http://creativecommons.org/ns#DerivativeWorks" />
      </cc:License>
    </rdf:RDF>
  </metadata>
  <defs
     id="defs6" />
  <sodipodi:namedview
     pagecolor="#686868"
     bordercolor="#000000"
     borderopacity="1"
     objecttolerance="10"
     gridtolerance="10"
     guidetolerance="10"
     inkscape:pageopacity="0"
     inkscape:pageshadow="2"
     inkscape:window-width="1920"
     inkscape:window-height="1136"
     id="namedview4"
     showgrid="true"
     inkscape:pagecheckerboard="false"
     showguides="true"
     inkscape:guide-bbox="true"
     inkscape:snap-object-midpoints="true"
     inkscape:snap-others="true"
     inkscape:object-nodes="false"
     inkscape:snap-nodes="false"
     inkscape:zoom="7.375"
     inkscape:cx="34.070187"
     inkscape:cy="31.958955"
     inkscape:window-x="0"
     inkscape:window-y="27"
     inkscape:window-maximized="1"
     inkscape:current-layer="svg2"
     inkscape:document-rotation="0"
     showborder="true"
     borderlayer="true"
     inkscape:showpageshadow="false"
     inkscape:snap-global="false"
     inkscape:snap-center="true">
    <inkscape:grid
       type="xygrid"
       id="grid4526"
       dotted="false"
       empspacing="8"
       snapvisiblegridlinesonly="true" />
    <sodipodi:guide
       position="32,69.288136"
       orientation="1,0"
       id="guide838"
       inkscape:locked="false" />
    <sodipodi:guide
       position="60.338983,96"
       orientation="0,1"
       id="guide842"
       inkscape:locked="false" />
  </sodipodi:namedview>
  <g
     id="g14"
     transform="matrix(1.1164647,0,0,1.1164647,18.080168,18.649421)"
     style="opacity:0.65;fill:#17152c;fill-opacity:1">
    <g
       id="g12"
       style="fill:#17152c;fill-opacity:1">
      <path
         d="m 13,8.57 c -0.79,0 -1.43,0.64 -1.43,1.43 0,0.79 0.64,1.43 1.43,1.43 0.79,0 1.43,-0.64 1.43,-1.43 0,-0.79 -0.64,-1.43 -1.43,-1.43 z"
         id="path8"
         style="fill:#17152c;fill-opacity:1" />
      <path
         d="M 13.21,3 C 9.37,2.89 6.21,5.87 6.02,9.64 L 4.1,12.2 C 3.85,12.53 4.09,13 4.5,13 H 6 v 3 c 0,1.1 0.9,2 2,2 h 1 v 2 c 0,0.55 0.45,1 1,1 h 5 c 0.55,0 1,-0.45 1,-1 V 16.32 C 18.44,15.16 20.1,12.64 20,9.74 19.86,6.12 16.82,3.11 13.21,3 Z M 16,10 c 0,0.13 -0.01,0.26 -0.02,0.39 l 0.83,0.66 c 0.08,0.06 0.1,0.16 0.05,0.25 l -0.8,1.39 c -0.05,0.09 -0.16,0.12 -0.24,0.09 l -0.99,-0.4 c -0.21,0.16 -0.43,0.29 -0.67,0.39 L 14,13.83 C 13.99,13.93 13.9,14 13.8,14 H 12.2 C 12.1,14 12.02,13.93 12,13.83 l -0.15,-1.06 c -0.25,-0.1 -0.47,-0.23 -0.68,-0.39 l -0.99,0.4 c -0.09,0.03 -0.2,0 -0.25,-0.09 L 9.13,11.3 C 9.08,11.22 9.1,11.11 9.18,11.05 l 0.84,-0.66 C 10.01,10.26 10,10.13 10,10 10,9.87 10.02,9.73 10.04,9.61 L 9.19,8.95 C 9.11,8.89 9.09,8.79 9.14,8.69 L 9.94,7.31 C 9.99,7.22 10.09,7.19 10.18,7.22 l 1,0.4 c 0.2,-0.15 0.43,-0.29 0.67,-0.39 L 12,6.17 C 12.02,6.07 12.1,6 12.2,6 h 1.6 c 0.1,0 0.18,0.07 0.2,0.17 l 0.15,1.06 c 0.24,0.1 0.46,0.23 0.67,0.39 l 1,-0.4 c 0.09,-0.03 0.2,0 0.24,0.09 l 0.8,1.38 c 0.05,0.09 0.03,0.2 -0.05,0.26 L 15.96,9.61 C 15.99,9.73 16,9.86 16,10 Z"
         id="path10"
         style="fill:#17152c;fill-opacity:1" />
    </g>
  </g>
</svg>
